X:1
T:from C:\Users\bagpi\OneDrive\Documents\PipingLessons\SoundOfSilence.mid
M:4/4
L:1/8
Q:1/4=200
K:Cmaj% 5 sharps
V:1
%%clef treble
%note track
z2 
%%MIDI program 0
%%scale 0.83
%%pagewidth 21.00cm
%%leftmargin 1.00cm
%%rightmargin 1.00cm
%%score { ( 1 2 3 4 ) } ( 5 6 ) ( 7 8 ) 9 ( 10 11 ) ( 12 13 ) 14 ( 15 16 )
%%MIDI program 0
B6| \
c4 z2 B2-| \
B4 z4| \
z8|
z2 B6| \
c4 z2 B2-| \
B4 z4| \
z8|
z4 A2 z2| \
B2- [BG]2 D2 z2| \
%11
D8-| \
D6 z2|
z4 B4| \
c4 z2 B2-| \
B4 z4| \
z8|
[fA]4 fz e2-| \
e6 C,z| \
z4 G4| \
z8|
z3z/2
%20
[f-A-]2[fA]/2 z2| \
z8| \
z4 [cE]4| \
f8-|
f6 z2| \
[a-c-]8| \
[ac]4 f4| \
%28
e8-|
e2 z2 f2 ez| \
[c-A-]8| \
[cA]8| \
z8|
[g-B-]8| \
[gB]8| \
z2 e2 z2 e2| \
c2 z6|
A8-| \
A8| \
z4 
%38
A,4-| \
A,4 A,4-|
A,6 z2| \
z8| \
z4 B,4| \
C6 z2|
z2 E,2- [A,-E,-]4|[A,E,-]2 
%46
%47
V:2
%%clef bass
%note track
z4 
%%MIDI program 0
E4-| \
E2 A2- [AE]2 z2| \
E8-| \
E6 z2|
z4 E4-| \
E2 A2- [AE]2 z2| \
E8-| \
E6 z2|
z6 
%9
D2-| \
D2 z4 A2-| \
A4 z4| \
z8|
z6 E2-| \
E2 A2- [AE]2 z2| \
E8-| \
E6 z2|
z8| \
z8| \
%19
C,8-| \
C,6 z2|
[fA]4 [e-G-]4| \
[eG]4 z4| \
z8| \
A8-|
A4 z4| \
z8| \
z8| \
G8|
z8| \
z8| \
z8| \
z8|
z8| \
z8| \
%31
A4 d4-| \
d8-|
d8-| \
d8| \
z6 D,2-| \
[B,D,-]6 D,2-|
%40
[G,-D,-]4 [B,-G,D,-]4| \
[B,D,]8| \
z6 A,2-| \
A,2 A,2- [A,E,-]2 E,2|
A,,8-|A,,8|
%47
V:3
%%clef treble
%note track
z2 
%%MIDI program 0
E4 z2| \
z8| \
z4 c4-| \
c6 z2|
z2 E4 z2| \
z8| \
z4 c4-| \
c6 z2|
z2 D2 z4| \
z8| \
z4 B4-| \
B8|
z2 
%12
E2 z4| \
z8| \
z4 c4-| \
c6 z2|
z4 Az [G-C-]2| \
[GC]6 z2| \
z6 e2-| \
e4 z4|
%20
F,4 z2 C2-| \
C4 z2 C,z| \
z4 C4| \
F,6 F,z|
z4 Az3| \
F,4 z2 F,z| \
F,4 A4| \
z6 
%27
Cz|
C4- [dC-]2 [cC]2| \
A,6 B,2| \
C6 C,z| \
C,8|
G,8-| \
G,6 G,2| \
z4 B2 z2| \
%35
A2 e2 B4-|
[B-A,-]8| \
[BA,]8| \
z2 G,6-| \
G,2 z6|
z6 
%41
A,2-| \
A,2 G,2- [A,-G,-]2 [A,G,G,,]2| \
z2 E,6-| \
E,4 z4|
z6 C2-|C6 
%47
V:4
%%clef bass
%note track
%%MIDI program 0
A,8-| \
A,8| \
A,8| \
z8|
A,6 z2| \
A,8-| \
A,8| \
A,8-|
A,6 z2| \
G,8-| \
G,8| \
G,8-|
G,6 z2| \
%13
A,8-| \
A,8| \
z2 A,6-|
A,6 z2| \
F,6 z2| \
z8| \
z8|
C2- [G-C-]2 [eGC]2 C2| \
z4 F,4| \
z8| \
%21
C,8|
z8| \
F,6 z2| \
z8| \
z8|
C,8-| \
C,6 z2| \
z8| \
z8|
z8| \
z8| \
z8| \
%34
A,8-|
A,6 e2-| \
e8-| \
e8| \
G,,8-|
G,,8-| \
G,,4 G,,4-| \
G,,6 z2| \
%43
A,,8-|
A,,6 B,2-|B,8-|B,2 
%47
V:5
%notes/lyric track
z8| \
z8| \
z8| \
z8|
z8| \
z8| \
z8| \
z8|
z8| \
z8| \
z8| \
z8|
z8| \
z8| \
z8| \
z8|
z8| \
z8| \
z8| \
z8|
z8| \
z8| \
z8| \
z8|
z8| \
z8| \
z8| \
z8|
z8| \
z8| \
z8| \
z8|
z8| \
z8| \
z8| \
z8|
z8| \
z6 
%%MIDI program 0
%19
%37
w:af2-|f8-|f8|
lonf -
V:6
%note track
z8| \
z8| \
z8| \
z8|
z8| \
z8| \
z8| \
z8|
z8| \
z8| \
z8| \
z8|
z8| \
z8| \
z8| \
z8|
z8| \
z8| \
z8| \
z8|
z8| \
z8| \
z8| \
z8|
z8| \
z8| \
z8| \
z8|
z8| \
z8| \
z8| \
z8|
z8| \
z8| \
z8| \
z8|
z8| \
z6 z
%%MIDI program 0
%19
%37
D/2-[D-C-G,-]/2| \
[D-C-A,-G,-D,-]2 [D-C-A,-G,-D,-G,,-]6|[DCA,G,-D,-G,,-]8|
[G,D,G,,]2 
%44
%47
V:7
%note track
z8| \
z8| \
z8| \
z8|
z8| \
z8| \
z4 
%%MIDI program 0
A,,z A,,z| \
C,z C,2 E,z E,2|
D,8-| \
D,4 z4| \
z2 
%10
G,,z B,,z/2B,,/2 B,,2-| \
B,,2 B,,2 D,2 D,2-|
D,2 z2 C,4-| \
C,4 z4| \
z2 C,2 C,z C,2| \
E,z E,2 G,z G,2|
z2 
%16
A,4 z2| \
z8| \
z8| \
E,2 E,z G,z G,2|
A,4 A,2 G,2-| \
G,8| \
z4 C,z C,2| \
A,2 A,6-|
A,2 z2 A,2 B,2| \
C4<C4| \
%26
B,2 z2 G,4-| \
G,8|
z4 A,4-| \
A,2 G,2 E,4-| \
E,2 z6| \
z2 C,z C,z C,2|
G,8-| \
G,2 z4 B,,2| \
C,2 
%35
A,,6-| \
A,,6 z2|
z2 A,,z A,,z A,,2| \
C,z C,2 E,2 C,2| \
D,8-| \
D,6 z2|
z2 G,,2 B,,2 B,,z| \
B,,2 B,,2 D,2 z2| \
%43
C,8-| \
C,4 z4|
z4 C,2 C,2| \
E,
%47
V:8
%note track
z8| \
z8| \
z8| \
z8|
z8| \
z8| \
z8| \
z8|
z8| \
z8| \
z8| \
z8|
z8| \
z8| \
z8| \
z8|
%%MIDI program 0
A,2 z2 
%17
G,4-| \
G,8-| \
G,2 z2 C,z C,2| \
z8|
z8| \
z8| \
z8| \
z8|
z8| \
z8| \
z2 A,4 z2| \
z8|
z8| \
z8| \
z8| \
z8|
z8| \
z8| \
z8| \
z8|
z8| \
z8| \
z8| \
z8|
z8| \
z6 
%33
B,,2-|B,,2 
%47
V:9
%note track
z8| \
z8| \
z8| \
z8|
z8| \
z8| \
z8| \
z8|
z8| \
z8| \
z8| \
z8|
z8| \
z8| \
z8| \
z8|
z8| \
z8| \
z8| \
z8|
z8| \
z8| \
z8| \
z8|
z8| \
z8| \
z8| \
z8|
z8| \
z8| \
z8| \
z8|
z8| \
z8| \
z8| \
z8|
z8| \
z8| \
%%MIDI program 0
%19
%38
[G,,-G,,,-]8| \
[G,,-G,,,-]8|
[G,,-G,,,-]8| \
[G,,G,,,]4 z4| \
%44
[A,,-A,,,-]8|[A,,-A,,,-]8|
[A,,-A,,,-]8|[A,,A,,,]8|
%47
V:10
%note track
z8| \
z8| \
z8| \
z8|
z8| \
z8| \
z8| \
z8|
z8| \
z8| \
z8| \
z8|
z8| \
z8| \
z8| \
z8|
z8| \
z8| \
z8| \
z8|
z8| \
z8| \
z8| \
z8|
z8| \
z8| \
z8| \
z8|
z8| \
z8| \
z8| \
z8|
z8| \
z8| \
z8| \
z8|
z8| \
z8| \
z8| \
z8|
z8| \
z2 
%%MIDI program 0
%19
%38
d6| \
g2- [gd]2 z4| \
z6 GA|
Bc BG A4| \
z8| \
G8|
%47
V:11
%note track
z8| \
z8| \
z8| \
z8|
z8| \
z8| \
z8| \
z8|
z8| \
z8| \
z8| \
z8|
z8| \
z8| \
z8| \
z8|
z8| \
z8| \
z8| \
z8|
z8| \
z8| \
z8| \
z8|
z8| \
z8| \
z8| \
z8|
z8| \
z8| \
z8| \
z8|
z8| \
z8| \
z8| \
z8|
z8| \
z8| \
z8| \
z8|
%%MIDI program 0
%19
%38
G,8-| \
G,6 z2| \
z8| \
z8|
z4 A,,4-|A,,8|
%47
V:12
%note track
z8| \
z8| \
z8| \
z8|
z8| \
z8| \
z8| \
z8|
z8| \
z8| \
z8| \
z8|
z8| \
z8| \
z8| \
z8|
z8| \
z8| \
z8| \
z8|
z8| \
z8| \
z8| \
z8|
z8| \
z8| \
z8| \
z8|
z8| \
z8| \
z8| \
z8|
z8| \
z8| \
z8| \
z8|
z8| \
z8| \
z8| \
z8|
z8| \
z8| \
%%MIDI program 0
%19
%38
[A,-E,-A,,-]8|[A,-E,-A,,-]8|
[A,-E,-A,,-]8|[A,-E,-A,,-]8|[A,E,A,,]2 
%47
V:13
%note track
z8| \
z8| \
z8| \
z8|
z8| \
z8| \
z8| \
z8|
z8| \
z8| \
z8| \
z8|
z8| \
z8| \
z8| \
z8|
z8| \
z8| \
z8| \
z8|
z8| \
z8| \
z8| \
z8|
z8| \
z8| \
z8| \
z8|
z8| \
z8| \
z8| \
z8|
z8| \
z8| \
z8| \
z8|
z8| \
z8| \
%%MIDI program 0
%19
%38
[G,-D,-G,,-]8|[G,-D,-G,,-]8|
[G,-D,-G,,-]8|[G,-D,-G,,-]8|[G,D,G,,]2 
%46
%47
V:14
%note track
z8| \
z8| \
z8| \
z8|
z8| \
z8| \
z8| \
z8|
z8| \
z8| \
z8| \
z8|
z8| \
z8| \
z8| \
z8|
z8| \
z8| \
z8| \
z8|
z8| \
z8| \
z8| \
z8|
z8| \
z8| \
z8| \
z8|
z8| \
z8| \
z8| \
z8|
z8| \
z8| \
z8| \
z8|
z8| \
z8| \
%%MIDI program 0
%19
%38
[G,-G,,-]8| \
[G,-G,,-]8|
[G,-G,,-]8| \
[G,G,,]4 z4| \
[A,-A,,-]8|[A,-A,,-]8|
[A,-A,,-]8|[A,A,,]8|
%46
%47
V:15
%%clef bass
%note track
%%MIDI program 0
[ECA,]2 z6| \
z8| \
z8| \
z8|
z8| \
z8| \
z8| \
z8|
[DB,G,]2 z6| \
z8| \
z8| \
z8|
[ECA,]2 z6| \
z8| \
z8| \
z8|
%13
A2 z6| \
z8| \
z8| \
z8|
c4 z4| \
[GEC]2 z6| \
[GEC]2 z6| \
%23
[cAF]2 z6|
z8| \
z8| \
z8| \
[GEC]2 z6|
z8| \
[ECA,]4 z4| \
z8| \
z8|
[DB,G,]4 z4| \
z8| \
%33
[ECA,]2 z6| \
z8|
z8| \
z8| \
[DB,G,]2 z6| \
z8|
z8| \
z8| \
[ECA,]4 
%46
%47
V:16
%note track
z8| \
z8| \
z8| \
z8|
z8| \
z8| \
z8| \
z8|
z8| \
z8| \
z8| \
z8|
z8| \
z8| \
z8| \
z8|
%%MIDI program 0
%16
[cF]4 z2 [G-E-C-]2| \
[GEC]2 z6| \
z8| \
z8|
[AF]2 
%27
%44
%47

